SVG_Azure_Grouped/AI/Cognitive Services Custom Vision.svg

<?xml version="1.0" encoding="UTF-8" standalone="no"?>
<!-- Generated by Microsoft Visio, SVG Export Cognitive Services Custom Vision.svg Page-1 -->

<svg
   xmlns:dc="http://purl.org/dc/elements/1.1/"
   xmlns:cc="http://creativecommons.org/ns#"
   xmlns:rdf="http://www.w3.org/1999/02/22-rdf-syntax-ns#"
   xmlns:svg="http://www.w3.org/2000/svg"
   xmlns="http://www.w3.org/2000/svg"
   xmlns:sodipodi="http://sodipodi.sourceforge.net/DTD/sodipodi-0.dtd"
   xmlns:inkscape="http://www.inkscape.org/namespaces/inkscape"
   width="0.78735834in"
   height="0.57140285in"
   viewBox="0 0 56.689816 41.141149"
   xml:space="preserve"
   class="st2"
   version="1.1"
   id="svg21"
   sodipodi:docname="Cognitive Services Custom Vision.svg"
   style="font-size:12px;overflow:visible;color-interpolation-filters:sRGB;fill:none;fill-rule:evenodd;stroke-linecap:square;stroke-miterlimit:3"
   inkscape:version="0.92.5 (2060ec1f9f, 2020-04-08)"><metadata
   id="metadata27"><rdf:RDF><cc:Work
       rdf:about=""><dc:format>image/svg+xml</dc:format><dc:type
         rdf:resource="http://purl.org/dc/dcmitype/StillImage" /></cc:Work></rdf:RDF></metadata><defs
   id="defs25" /><sodipodi:namedview
   pagecolor="#ffffff"
   bordercolor="#666666"
   borderopacity="1"
   objecttolerance="10"
   gridtolerance="10"
   guidetolerance="10"
   inkscape:pageopacity="0"
   inkscape:pageshadow="2"
   inkscape:window-width="640"
   inkscape:window-height="480"
   id="namedview23"
   showgrid="false"
   inkscape:zoom="2.0480991"
   inkscape:cx="37.795137"
   inkscape:cy="10.617373"
   inkscape:window-x="0"
   inkscape:window-y="0"
   inkscape:window-maximized="0"
   inkscape:current-layer="svg21" />
	<style
   type="text/css"
   id="style2">
	<![CDATA[
		.st1 {fill:#0078d4;stroke:none;stroke-linecap:butt;stroke-width:10.0328}
		.st2 {fill:none;fill-rule:evenodd;font-size:12px;overflow:visible;stroke-linecap:square;stroke-miterlimit:3}
	]]>
	</style>

	<g
   id="g19"
   transform="translate(-10.032922,-10.032859)">
		<title
   id="title4">Page-1</title>
		<g
   id="group18648-1"
   transform="translate(10.0328,-34.0157)">
			<title
   id="title6">Cognitive Services Custom Vision.18648</title>
			<g
   id="shape18649-2">
				<title
   id="title8">Sheet.18649</title>
				<path
   d="M 28.38,85.09 C 16.73,86.42 0,74.17 0,64.72 0,55.49 14.87,43.9 28.38,44.05 c 14.66,0.15 28.31,12.4 28.31,20.67 0,8.71 -15.51,21.26 -28.31,20.37 z m 0,-37.13 c -5.15,0 -11.65,1.85 -16.73,5.98 C 7.15,57.56 3,62.5 3.72,65.09 5.79,72.91 17.16,81.33 28.31,81.4 40.68,81.48 52.9,70.33 52.9,64.72 52.9,59.4 40.68,47.96 28.38,47.96 Z"
   class="st1"
   id="path10"
   inkscape:connector-curvature="0"
   style="fill:#0078d4;stroke:none;stroke-width:10.03279972;stroke-linecap:butt" />
			</g>
			<g
   id="shape18650-4"
   transform="translate(18.6593,-11.6644)">
				<title
   id="title13">Sheet.18650</title>
				<path
   d="m 19.37,77.64 v -2.66 l -2.5,-0.66 c -0.14,-0.67 -0.43,-1.26 -0.78,-1.85 l 1.35,-2.29 -1.78,-1.84 -2.29,1.4 C 12.8,69.44 12.23,69.15 11.58,69 L 10.94,66.34 H 8.36 L 7.79,69 c -0.64,0.15 -1.21,0.44 -1.78,0.74 l -2.29,-1.4 -1.79,1.84 1.36,2.36 C 3,73.13 2.72,73.73 2.57,74.39 L 0,75.05 v 2.66 l 2.57,0.67 c 0.15,0.66 0.43,1.25 0.72,1.84 l -1.36,2.36 1.79,1.85 2.21,-1.4 c 0.58,0.37 1.15,0.59 1.79,0.73 l 0.64,2.66 h 2.58 l 0.64,-2.58 c 0.65,-0.15 1.29,-0.44 1.79,-0.74 l 2.22,1.4 1.78,-1.84 -1.36,-2.29 c 0.36,-0.59 0.58,-1.18 0.79,-1.92 z m -9.65,2.73 c -2.14,0 -3.93,-1.85 -3.93,-4.06 0,-2.22 1.79,-4.06 3.93,-4.06 2.15,0 3.93,1.84 3.93,4.06 0,2.21 -1.78,4.06 -3.93,4.06 z"
   class="st1"
   id="path15"
   inkscape:connector-curvature="0"
   style="fill:#0078d4;stroke:none;stroke-width:10.03279972;stroke-linecap:butt" />
			</g>
		</g>
	</g>
</svg>

<?xml version="1.0" encoding="UTF-8" standalone="no"?>
<!DOCTYPE svg PUBLIC "-//W3C//DTD SVG 1.1//EN" "http://www.w3.org/Graphics/SVG/1.1/DTD/svg11.dtd">
<!-- Generated by Microsoft Visio, SVG Export Cognitive Services Custom Vision.svg Page-1 -->
<svg xmlns="http://www.w3.org/2000/svg" xmlns:xlink="http://www.w3.org/1999/xlink" xmlns:ev="http://www.w3.org/2001/xml-events"
		width="1.06609in" height="1.2003in" viewBox="0 0 76.7585 86.4219" xml:space="preserve" color-interpolation-filters="sRGB"
		class="st2">
	<style type="text/css">
	<![CDATA[
		.st1 {fill:#0078d4;stroke:none;stroke-linecap:butt;stroke-width:10.0328}
		.st2 {fill:none;fill-rule:evenodd;font-size:12px;overflow:visible;stroke-linecap:square;stroke-miterlimit:3}
	]]>
	</style>

	<g>
		<title>Page-1</title>
		<g id="group18218-1" transform="translate(10.0328,-34.0157)">
			<title>Cognitive Services Custom Vision.18218</title>
			<g id="shape18219-2">
				<title>Sheet.18219</title>
				<path d="M28.38 85.09 C16.73 86.42 0 74.17 0 64.72 C0 55.49 14.87 43.9 28.38 44.05 C43.04 44.2 56.69 56.45 56.69
							 64.72 C56.69 73.43 41.18 85.98 28.38 85.09 ZM28.38 47.96 C23.23 47.96 16.73 49.81 11.65 53.94 C7.15
							 57.56 3 62.5 3.72 65.09 C5.79 72.91 17.16 81.33 28.31 81.4 C40.68 81.48 52.9 70.33 52.9 64.72 C52.9
							 59.4 40.68 47.96 28.38 47.96 Z" class="st1"/>
			</g>
			<g id="shape18220-4" transform="translate(18.6593,-11.6644)">
				<title>Sheet.18220</title>
				<path d="M19.37 77.64 L19.37 74.98 L16.87 74.32 C16.73 73.65 16.44 73.06 16.09 72.47 L17.44 70.18 L15.66 68.34 L13.37
							 69.74 C12.8 69.44 12.23 69.15 11.58 69 L10.94 66.34 L8.36 66.34 L7.79 69 C7.15 69.15 6.58 69.44 6.01
							 69.74 L3.72 68.34 L1.93 70.18 L3.29 72.54 C3 73.13 2.72 73.73 2.57 74.39 L0 75.05 L0 77.71 L2.57 78.38
							 C2.72 79.04 3 79.63 3.29 80.22 L1.93 82.58 L3.72 84.43 L5.93 83.03 C6.51 83.4 7.08 83.62 7.72 83.76
							 L8.36 86.42 L10.94 86.42 L11.58 83.84 C12.23 83.69 12.87 83.4 13.37 83.1 L15.59 84.5 L17.37 82.66 L16.01
							 80.37 C16.37 79.78 16.59 79.19 16.8 78.45 L19.37 77.64 ZM9.72 80.37 C7.58 80.37 5.79 78.52 5.79 76.31
							 C5.79 74.09 7.58 72.25 9.72 72.25 C11.87 72.25 13.65 74.09 13.65 76.31 C13.65 78.52 11.87 80.37 9.72
							 80.37 Z" class="st1"/>
			</g>
		</g>
	</g>
</svg>
